svg/emoji_u1f530.svg

<svg enable-background="new 0 0 128 128" viewBox="0 0 128 128" xmlns="http://www.w3.org/2000/svg"><linearGradient id="b" x1="40" x2="40" y1="4" y2="124.2" gradientUnits="userSpaceOnUse"><stop stop-color="#ff0" offset="0"/><stop stop-color="#FFD600" offset="1"/></linearGradient><path d="m61.5 34-39-29.12c-2.62-2.09-6.5-0.23-6.5 3.13v82.07c0 1.22 0.55 2.36 1.5 3.12l44 29.92c0.73 0.58 1.61 0.88 2.5 0.88v-89.12c-0.88 0-1.77-0.29-2.5-0.88z" fill="url(#b)"/><linearGradient id="a" x1="88" x2="88" y1="4" y2="124.2" gradientUnits="userSpaceOnUse"><stop stop-color="#4DB6AC" offset="0"/><stop stop-color="#2BA296" offset=".4722"/><stop stop-color="#00897B" offset="1"/></linearGradient><path d="m105.5 4.88-39 29.12c-0.73 0.58-1.61 0.88-2.5 0.88v89.12c0.88 0 1.77-0.29 2.5-0.88l44-29.92c0.95-0.76 1.5-1.91 1.5-3.12v-82.07c0-3.36-3.88-5.22-6.5-3.13z" fill="url(#a)"/><g opacity=".2"><path d="m20.02 7c0.22 0 0.42 0.07 0.61 0.23l0.08 0.06 38.97 29.09c0.41 0.32 0.86 0.6 1.33 0.82v81.95l-41.69-28.34c-0.2-0.19-0.32-0.45-0.32-0.73v-82.07c0-0.7 0.6-1.01 1.02-1.01m0-3c-2.07 0-4.02 1.63-4.02 4.01v82.07c0 1.22 0.55 2.36 1.5 3.12l44 29.92c0.73 0.58 1.61 0.88 2.5 0.88v-89.12c-0.88 0-1.77-0.29-2.5-0.88l-39-29.12c-0.76-0.61-1.63-0.88-2.48-0.88z" fill="#424242"/></g><g opacity=".2"><path d="m107.98 7c0.42 0 1.02 0.31 1.02 1.01v82.07c0 0.28-0.11 0.54-0.32 0.73l-41.68 28.34v-81.95c0.47-0.22 0.92-0.5 1.33-0.82l38.97-29.09 0.08-0.06c0.19-0.16 0.38-0.23 0.6-0.23m0-3c-0.85 0-1.72 0.27-2.48 0.88l-39 29.12c-0.73 0.58-1.61 0.88-2.5 0.88v89.12c0.88 0 1.77-0.29 2.5-0.88l44-29.92c0.95-0.76 1.5-1.91 1.5-3.12v-82.07c0-2.38-1.95-4.01-4.02-4.01z" fill="#424242"/></g></svg>

<svg width="128" height="128" style="enable-background:new 0 0 128 128;" xmlns="http://www.w3.org/2000/svg" xmlns:xlink="http://www.w3.org/1999/xlink">
  <g>
    <linearGradient id="SVGID_1_" gradientUnits="userSpaceOnUse" x1="40" x2="40" y1="4" y2="124.204">
      <stop offset="0" style="stop-color:#FFFF00"/>
      <stop offset="1" style="stop-color:#FFD600"/>
    </linearGradient>
    <path d="M61.5,34l-39-29.12C19.88,2.79,16,4.65,16,8.01v82.07c0,1.22,0.55,2.36,1.5,3.12l44,29.92 c0.73,0.58,1.61,0.88,2.5,0.88V34.88C63.12,34.88,62.23,34.59,61.5,34z" style="fill:url(#SVGID_1_);"/>
    <linearGradient id="SVGID_2_" gradientUnits="userSpaceOnUse" x1="88" x2="88" y1="4" y2="124.204">
      <stop offset="0" style="stop-color:#4DB6AC"/>
      <stop offset="0.4722" style="stop-color:#2BA296"/>
      <stop offset="1" style="stop-color:#00897B"/>
    </linearGradient>
    <path d="M105.5,4.88L66.5,34c-0.73,0.58-1.61,0.88-2.5,0.88V124c0.88,0,1.77-0.29,2.5-0.88l44-29.92 c0.95-0.76,1.5-1.91,1.5-3.12V8.01C112,4.65,108.12,2.79,105.5,4.88z" style="fill:url(#SVGID_2_);"/>
    <g style="opacity:0.2;">
      <path d="M20.02,7c0.22,0,0.42,0.07,0.61,0.23l0.04,0.03l0.04,0.03l38.97,29.09 c0.41,0.32,0.86,0.6,1.33,0.82v81.95L19.32,90.81c-0.2-0.19-0.32-0.45-0.32-0.73V8.01C19,7.31,19.6,7,20.02,7 M20.02,4 C17.95,4,16,5.63,16,8.01v82.07c0,1.22,0.55,2.36,1.5,3.12l44,29.92c0.73,0.58,1.61,0.88,2.5,0.88V34.88 c-0.88,0-1.77-0.29-2.5-0.88l-39-29.12C21.74,4.27,20.87,4,20.02,4L20.02,4z" style="fill:#424242;"/>
    </g>
    <g style="opacity:0.2;">
      <path d="M107.98,7C108.4,7,109,7.31,109,8.01v82.07c0,0.28-0.11,0.54-0.32,0.73L67,119.15V37.2 c0.47-0.22,0.92-0.5,1.33-0.82L107.3,7.29l0.04-0.03l0.04-0.03C107.57,7.07,107.76,7,107.98,7 M107.98,4 c-0.85,0-1.72,0.27-2.48,0.88L66.5,34c-0.73,0.58-1.61,0.88-2.5,0.88V124c0.88,0,1.77-0.29,2.5-0.88l44-29.92 c0.95-0.76,1.5-1.91,1.5-3.12V8.01C112,5.63,110.05,4,107.98,4L107.98,4z" style="fill:#424242;"/>
    </g>
  </g>
</svg>
